16x16/apps/jad.svg

<svg height="16" width="16" xmlns="http://www.w3.org/2000/svg"><path d="m12 16v-2h2v-2h2v-8h-2v-2h-2v-2h-8v2h-2v2h-2v8h2v2h2v2z" fill="#e41a00"/><path d="m3 3v10h2l1-2s.415 1 1 1c1 0 2 0 2-2v-7zm9 0v7c0 1.292-.42 2.267-.984 3h1.984v-10z" fill="#f4f4f7"/></svg>

<svg height="16" width="16" xmlns="http://www.w3.org/2000/svg">
    <path d="M12 16v-2h2v-2h2V4h-2V2h-2V0H4v2H2v2H0v8h2v2h2v2z" fill="#e41a00"/>
    <path d="M3 3v10h2l1-2s.415 1 1 1c1 0 2 0 2-2V3zm9 0v7c0 1.292-.42 2.267-.984 3H13V3z" fill="#f4f4f7"/>
</svg>
